X: 1065
T: Hicrân, Yine Hicrân mı
C: Şerif İçli
O: Turkey
F: http://compmusic.upf.edu/node/140
N: huzzam--sarki--aksak--hicran_yine_hicran--serif_icli
N: makam= huzzam
N: form= sarki
N: usul= aksak = 9/8
M: 9/8
L: 1/16
K: C _1/4B _3/4e ^3/4f 
Q: 1/4=114
%%MIDI tuningsystem comma53
G3A B2c2 A3B c2d2 e2 | c3de2 f2d3ef2 g2a2  | \
w:  ARANAĞME  |   | 
g3c' bc'a_b gafg efde dc | 
w:   | 
Bc def2 eddc cBB6  | G3A B2c2 A3B c2d2 e2 | 
w:   |  ARANAĞME  | 
c3de2 f2d3ef2 g2a2  | g3c' bc'a_b gafg efde dc | 
w:   |   | 
Bc def2 eddc cBB6  | d4 c3d d8 e2 | f2 edg2 {a}gffe edd4(3cBc  | 
w:   |  *  Hic *  rân  |  *  *  *  yi *  ne *  hic *  *  *  rân  | 
B4 c2d2 d3c defg gf | fe edd2 d2d2 cBg2 feed  | 
w:  *  mı bu aş *  kın  |  *  *  *  *  so nu söy  | 
d6fe dcB^A B3c Bc | d4c3dd8e2  | f2ed g2{a}gf feed d4 (3cBc | 
w:  le SAZ  |  *  Hic *  rân  |  *  *  *  yi *  ne *  hic *  *  *  rân  | 
B4c2 d2d3cde fggf  | feed d2d2 d2cB g2fe ed | 
w:  *  mı bu aş *  kın  |  *  *  *  *  so nu söy  | 
d6 fedc Bcd3ced  | d4 f3g g4 feed dc | 
w:  le SAZ  |  *  Dal *  gın  | 
c4d2 e2f2 g2a_b agfe  | d4 d2f2 e2d2 e3/2d/cd ef | 
w:  *  ki o göz *  ler  |  *  se ni söy *  ler  | 
d2 cBB2 B2c2 d2de dccB  | B6fe dcBc d3c ed | 
w:  *  *  *  ba na böy  |  le SAZ  | 
d4f3gg4fe eddc  | c4 d2e2 f2g2 a_bag fe | 
w:  *  Dal *  gın  |  *  ki o göz *  ler  | 
d4d2 f2e2 d2e3/2d/ cdef  | d2cB B2B2 c2d2 dedc cB | 
w:  *  se ni söy *  ler  |  *  *  *  ba na böy  | 
B6 agg^f f^ef4eg  | ^f4 ^e3g f4 g2^3/4f_1/4e de | \
w:  le SAZ  |  *  Â *  vâ  | 
d2 ^cBB2 c2d4d=c cBB^A  | 
w:  *  *  *  re ge zen gön  | 
B4 c2d2 d3c defg gf | fe edd2 d2d2 cBg2 feed  | 
w:  *  lü me sev *  mek  |  *  *  *  *  bu mu söy  | 
d6ag g^ff^e f4 eg | ^f4^e3gf4g2 ^3/4f_1/4ede  | \
w:  le SAZ  |  *  Â *  vâ  | 
d2^cB B2c2 d4 d=ccB B^A | 
w:  *  *  *  re ge zen gön  | 
B4c2 d2d3cde fggf  | feed d2d2 d2cB g2fe ed | 
w:  *  lü me sev *  mek  |  *  *  *  *  bu mu söy  | 
d6 fedc Bcd3ced  | d4 f3g g4 feed dc | 
w:  le SAZ  |  *  Dal *  gın  | 
c4d2 e2f2 g2a_b agfe  | d4 d2f2 e2d2 e3/2d/cd ef | 
w:  *  ki o göz *  ler  |  *  se ni söy *  ler  | 
d2 cBB2 B2c2 d2de dccB  | B6|
w:  *  *  *  ba na böy  |  le  | 


